X:1
T:Possumwood Harmony
M:C|
L:1/8
K:C
C2C2 CA, G,2 | CD E2 F4 |C2C2 CD E2| F4 E4|
 e2e2 ed c2|dc2d c4|G2c2 cA G2 | C2>B,2 C2A,B,:|
C2 gf edcB | A2>B2 AG F2|E2 gf edcB| A2E2 E2>A2|
 B2>c2 BAGA | BABc BAGA | BABc dcdc | BAGF EDCB,:|
